app/assets/img/work/ttl-mahna-sp.svg

<svg fill="none" height="21" viewBox="0 0 216 21" width="216" xmlns="http://www.w3.org/2000/svg"><path d="m.56 20v-13.481h2.496c.25133 0 .45933.05633.624.169.17333.11267.29467.28167.364.507l.221.728c.22533-.234.45933-.44633.702-.637.24267-.19933.50267-.36833.78-.507.286-.14733.58933-.26.91-.338.32933-.08667.689-.13 1.079-.13.81467 0 1.48633.21233 2.015.637.5373.416.9447.975 1.222 1.677.2253-.416.4983-.77133.819-1.066.3293-.29467.6803-.533 1.053-.715.3813-.182.78-.31633 1.196-.403.4247-.08667.845-.13 1.261-.13.7713 0 1.456.117 2.054.351.598.22533 1.0963.559 1.495 1.001.4073.43333.715.97067.923 1.612.208.63267.312 1.352.312 2.158v8.567h-4.03v-8.567c0-1.3953-.598-2.093-1.794-2.093-.546 0-1.001.182-1.365.546-.3553.3553-.533.871-.533 1.547v8.567h-4.03v-8.567c0-.7713-.15167-1.313-.455-1.625s-.74967-.468-1.339-.468c-.364 0-.71067.08233-1.04.247-.32067.16467-.624.38567-.91.663v9.75zm31.9625 0c-.3813 0-.6716-.052-.871-.156-.1906-.104-.351-.3207-.481-.65l-.286-.741c-.338.286-.663.5373-.975.754s-.637.403-.975.559c-.3293.1473-.6846.2557-1.066.325-.3726.078-.7886.117-1.248.117-.6153 0-1.1743-.078-1.677-.234-.5026-.1647-.9316-.403-1.287-.715-.3466-.312-.6153-.6977-.806-1.157-.1906-.468-.286-1.0053-.286-1.612 0-.4767.1214-.9663.364-1.469.2427-.5027.663-.9577 1.261-1.365.598-.416 1.404-.7627 2.418-1.04s2.2924-.4333 3.835-.468v-.572c0-.7887-.1646-1.3563-.494-1.703-.3206-.35533-.78-.533-1.378-.533-.4766 0-.8666.052-1.17.156-.3033.104-.5763.221-.819.351-.234.13-.4636.247-.689.351-.2253.104-.494.156-.806.156-.2773 0-.5156-.065-.715-.195-.1906-.1387-.3423-.30767-.455-.507l-.728-1.261c.8147-.71933 1.716-1.25233 2.704-1.599.9967-.35533 2.0627-.533 3.198-.533.8147 0 1.547.13433 2.197.403.6587.26 1.2134.62833 1.664 1.105.4594.468.8104 1.027 1.053 1.677.2427.65.364 1.3607.364 2.132v8.424zm-4.628-2.457c.52 0 .975-.091 1.365-.273s.7844-.4767 1.183-.884v-1.872c-.806.0347-1.469.104-1.989.208s-.9316.234-1.235.39c-.3033.156-.5156.3337-.637.533-.1126.1993-.169.416-.169.65 0 .4593.1257.7843.377.975.2514.182.6197.273 1.105.273zm9.5957 2.457v-19.461001h4.03v7.163001c.4853-.416 1.0096-.74967 1.573-1.001.572-.26 1.2523-.39 2.041-.39.7366 0 1.3866.13 1.95.39.572.25133 1.053.60667 1.443 1.066.39.45067.6846.99233.884 1.625.1993.624.299 1.3043.299 2.041v8.567h-4.03v-8.567c0-.6587-.1517-1.17-.455-1.534-.3034-.37267-.7497-.559-1.339-.559-.442 0-.858.09533-1.248.286s-.7627.4463-1.118.767v9.607zm15.342 0v-13.481h2.496c.2513 0 .4593.05633.624.169.1733.11267.2947.28167.364.507l.234.78c.26-.24267.5287-.468.806-.676s.572-.38133.884-.52c.3207-.14733.663-.26 1.027-.338.3727-.08667.7757-.13 1.209-.13.7367 0 1.3867.13 1.95.39.572.25133 1.053.60667 1.443 1.066.39.45067.6847.99233.884 1.625.1993.624.299 1.3043.299 2.041v8.567h-4.03v-8.567c0-.6587-.1517-1.17-.455-1.534-.3033-.37267-.7497-.559-1.339-.559-.442 0-.858.09533-1.248.286s-.7627.4463-1.118.767v9.607zm24.65 0c-.3813 0-.6716-.052-.871-.156-.1906-.104-.351-.3207-.481-.65l-.286-.741c-.338.286-.663.5373-.975.754s-.637.403-.975.559c-.3293.1473-.6846.2557-1.066.325-.3726.078-.7886.117-1.248.117-.6153 0-1.1743-.078-1.677-.234-.5026-.1647-.9316-.403-1.287-.715-.3466-.312-.6153-.6977-.806-1.157-.1906-.468-.286-1.0053-.286-1.612 0-.4767.1214-.9663.364-1.469.2427-.5027.663-.9577 1.261-1.365.598-.416 1.404-.7627 2.418-1.04s2.2924-.4333 3.835-.468v-.572c0-.7887-.1646-1.3563-.494-1.703-.3206-.35533-.78-.533-1.378-.533-.4766 0-.8666.052-1.17.156-.3033.104-.5763.221-.819.351-.234.13-.4636.247-.689.351-.2253.104-.494.156-.806.156-.2773 0-.5156-.065-.715-.195-.1906-.1387-.3423-.30767-.455-.507l-.728-1.261c.8147-.71933 1.716-1.25233 2.704-1.599.9967-.35533 2.0627-.533 3.198-.533.8147 0 1.547.13433 2.197.403.6587.26 1.2134.62833 1.664 1.105.4594.468.8104 1.027 1.053 1.677.2427.65.364 1.3607.364 2.132v8.424zm-4.628-2.457c.52 0 .975-.091 1.365-.273s.7844-.4767 1.183-.884v-1.872c-.806.0347-1.469.104-1.989.208s-.9316.234-1.235.39c-.3033.156-.5156.3337-.637.533-.1126.1993-.169.416-.169.65 0 .4593.1257.7843.377.975.2514.182.6197.273 1.105.273zm14.883 2.457v-13.481h2.496c.2513 0 .4593.05633.624.169.1733.11267.2947.28167.364.507l.221.728c.2253-.234.4593-.44633.702-.637.2427-.19933.5027-.36833.78-.507.286-.14733.5893-.26.91-.338.3293-.08667.689-.13 1.079-.13.8147 0 1.4863.21233 2.015.637.5373.416.9447.975 1.222 1.677.2253-.416.4983-.77133.819-1.066.3293-.29467.6803-.533 1.0528-.715.382-.182.78-.31633 1.196-.403.425-.08667.845-.13 1.261-.13.772 0 1.456.117 2.054.351.598.22533 1.097.559 1.495 1.001.408.43333.715.97067.923 1.612.208.63267.312 1.352.312 2.158v8.567h-4.03v-8.567c0-1.3953-.598-2.093-1.794-2.093-.546 0-1.001.182-1.365.546-.3551.3553-.5328.871-.5328 1.547v8.567h-4.03v-8.567c0-.7713-.1517-1.313-.455-1.625s-.7497-.468-1.339-.468c-.364 0-.7107.08233-1.04.247-.3207.16467-.624.38567-.91.663v9.75zm31.9628 0c-.382 0-.672-.052-.871-.156-.191-.104-.351-.3207-.481-.65l-.286-.741c-.338.286-.663.5373-.975.754s-.637.403-.975.559c-.33.1473-.685.2557-1.066.325-.373.078-.789.117-1.248.117-.616 0-1.175-.078-1.677-.234-.503-.1647-.932-.403-1.287-.715-.347-.312-.616-.6977-.806-1.157-.191-.468-.286-1.0053-.286-1.612 0-.4767.121-.9663.364-1.469.242-.5027.663-.9577 1.261-1.365.598-.416 1.404-.7627 2.418-1.04s2.292-.4333 3.835-.468v-.572c0-.7887-.165-1.3563-.494-1.703-.321-.35533-.78-.533-1.378-.533-.477 0-.867.052-1.17.156-.304.104-.577.221-.819.351-.234.13-.464.247-.689.351-.226.104-.494.156-.806.156-.278 0-.516-.065-.715-.195-.191-.1387-.343-.30767-.455-.507l-.728-1.261c.814-.71933 1.716-1.25233 2.704-1.599.996-.35533 2.062-.533 3.198-.533.814 0 1.547.13433 2.197.403.658.26 1.213.62833 1.664 1.105.459.468.81 1.027 1.053 1.677.242.65.364 1.3607.364 2.132v8.424zm-4.628-2.457c.52 0 .975-.091 1.365-.273s.784-.4767 1.183-.884v-1.872c-.806.0347-1.469.104-1.989.208s-.932.234-1.235.39c-.304.156-.516.3337-.637.533-.113.1993-.169.416-.169.65 0 .4593.125.7843.377.975.251.182.619.273 1.105.273zm9.595 2.457v-19.461001h4.03v7.163001c.486-.416 1.01-.74967 1.573-1.001.572-.26 1.253-.39 2.041-.39.737 0 1.387.13 1.95.39.572.25133 1.053.60667 1.443 1.066.39.45067.685.99233.884 1.625.2.624.299 1.3043.299 2.041v8.567h-4.03v-8.567c0-.6587-.151-1.17-.455-1.534-.303-.37267-.749-.559-1.339-.559-.442 0-.858.09533-1.248.286s-.762.4463-1.118.767v9.607zm15.342 0v-13.481h2.496c.252 0 .46.05633.624.169.174.11267.295.28167.364.507l.234.78c.26-.24267.529-.468.806-.676.278-.208.572-.38133.884-.52.321-.14733.663-.26 1.027-.338.373-.08667.776-.13 1.209-.13.737 0 1.387.13 1.95.39.572.25133 1.053.60667 1.443 1.066.39.45067.685.99233.884 1.625.2.624.299 1.3043.299 2.041v8.567h-4.03v-8.567c0-.6587-.151-1.17-.455-1.534-.303-.37267-.749-.559-1.339-.559-.442 0-.858.09533-1.248.286s-.762.4463-1.118.767v9.607zm24.65 0c-.381 0-.671-.052-.871-.156-.19-.104-.351-.3207-.481-.65l-.286-.741c-.338.286-.663.5373-.975.754s-.637.403-.975.559c-.329.1473-.684.2557-1.066.325-.372.078-.788.117-1.248.117-.615 0-1.174-.078-1.677-.234-.502-.1647-.931-.403-1.287-.715-.346-.312-.615-.6977-.806-1.157-.19-.468-.286-1.0053-.286-1.612 0-.4767.122-.9663.364-1.469.243-.5027.663-.9577 1.261-1.365.598-.416 1.404-.7627 2.418-1.04s2.293-.4333 3.835-.468v-.572c0-.7887-.164-1.3563-.494-1.703-.32-.35533-.78-.533-1.378-.533-.476 0-.866.052-1.17.156-.303.104-.576.221-.819.351-.234.13-.463.247-.689.351-.225.104-.494.156-.806.156-.277 0-.515-.065-.715-.195-.19-.1387-.342-.30767-.455-.507l-.728-1.261c.815-.71933 1.716-1.25233 2.704-1.599.997-.35533 2.063-.533 3.198-.533.815 0 1.547.13433 2.197.403.659.26 1.214.62833 1.664 1.105.46.468.811 1.027 1.053 1.677.243.65.364 1.3607.364 2.132v8.424zm-4.628-2.457c.52 0 .975-.091 1.365-.273s.785-.4767 1.183-.884v-1.872c-.806.0347-1.469.104-1.989.208s-.931.234-1.235.39c-.303.156-.515.3337-.637.533-.112.1993-.169.416-.169.65 0 .4593.126.7843.377.975.252.182.62.273 1.105.273zm19.693 2.457h-4.42v-18.941h4.42zm3.779 0v-13.481h2.496c.251 0 .459.05633.624.169.173.11267.294.28167.364.507l.234.78c.26-.24267.528-.468.806-.676.277-.208.572-.38133.884-.52.32-.14733.663-.26 1.027-.338.372-.08667.775-.13 1.209-.13.736 0 1.386.13 1.95.39.572.25133 1.053.60667 1.443 1.066.39.45067.684.99233.884 1.625.199.624.299 1.3043.299 2.041v8.567h-4.03v-8.567c0-.6587-.152-1.17-.455-1.534-.304-.37267-.75-.559-1.339-.559-.442 0-.858.09533-1.248.286s-.763.4463-1.118.767v9.607zm25.066-10.283c-.122.14733-.239.26433-.351.351-.113.0867-.273.13-.481.13-.2 0-.382-.0477-.546-.143-.156-.09533-.334-.19933-.533-.312-.2-.12133-.434-.22967-.702-.325-.269-.09533-.603-.143-1.001-.143-.494 0-.923.091-1.287.273-.356.182-.65.442-.884.78s-.408.754-.52 1.248c-.113.4853-.169 1.0357-.169 1.651 0 1.2913.247 2.2837.741 2.977.502.6933 1.191 1.04 2.067 1.04.468 0 .836-.0563 1.105-.169.277-.1213.511-.2513.702-.39.19-.1473.364-.2817.52-.403.164-.1213.368-.182.611-.182.32 0 .563.117.728.351l1.17 1.443c-.416.4767-.854.8667-1.313 1.17-.46.2947-.932.5287-1.417.702-.477.1647-.958.2773-1.443.338-.486.0693-.958.104-1.417.104-.824 0-1.612-.156-2.366-.468-.746-.312-1.404-.7627-1.976-1.352-.564-.598-1.014-1.3303-1.352-2.197-.33-.8667-.494-1.8547-.494-2.964 0-.9707.143-1.8763.429-2.717.294-.84933.723-1.58167 1.287-2.197.572-.624 1.274-1.11367 2.106-1.469.84-.35533 1.811-.533 2.912-.533 1.057 0 1.984.169 2.782.507.797.338 1.516.832 2.158 1.482zm2.4 8.242c0-.312.056-.6023.169-.871.121-.2687.282-.5027.481-.702.208-.1993.451-.3553.728-.468.277-.1213.581-.182.91-.182.321 0 .62.0607.897.182.277.1127.52.2687.728.468s.368.4333.481.702c.121.2687.182.559.182.871s-.061.6067-.182.884c-.113.2687-.273.5027-.481.702s-.451.3553-.728.468-.576.169-.897.169c-.329 0-.633-.0563-.91-.169s-.52-.2687-.728-.468c-.199-.1993-.36-.4333-.481-.702-.113-.2773-.169-.572-.169-.884z" fill="#121111"/></svg>

<svg width="216" height="21" viewBox="0 0 216 21" fill="none" xmlns="http://www.w3.org/2000/svg">
<path d="M0.56 20V6.519H3.056C3.30733 6.519 3.51533 6.57533 3.68 6.688C3.85333 6.80067 3.97467 6.96967 4.044 7.195L4.265 7.923C4.49033 7.689 4.72433 7.47667 4.967 7.286C5.20967 7.08667 5.46967 6.91767 5.747 6.779C6.033 6.63167 6.33633 6.519 6.657 6.441C6.98633 6.35433 7.346 6.311 7.736 6.311C8.55067 6.311 9.22233 6.52333 9.751 6.948C10.2883 7.364 10.6957 7.923 10.973 8.625C11.1983 8.209 11.4713 7.85367 11.792 7.559C12.1213 7.26433 12.4723 7.026 12.845 6.844C13.2263 6.662 13.625 6.52767 14.041 6.441C14.4657 6.35433 14.886 6.311 15.302 6.311C16.0733 6.311 16.758 6.428 17.356 6.662C17.954 6.88733 18.4523 7.221 18.851 7.663C19.2583 8.09633 19.566 8.63367 19.774 9.275C19.982 9.90767 20.086 10.627 20.086 11.433V20H16.056V11.433C16.056 10.0377 15.458 9.34 14.262 9.34C13.716 9.34 13.261 9.522 12.897 9.886C12.5417 10.2413 12.364 10.757 12.364 11.433V20H8.334V11.433C8.334 10.6617 8.18233 10.12 7.879 9.808C7.57567 9.496 7.12933 9.34 6.54 9.34C6.176 9.34 5.82933 9.42233 5.5 9.587C5.17933 9.75167 4.876 9.97267 4.59 10.25V20H0.56ZM32.5225 20C32.1412 20 31.8509 19.948 31.6515 19.844C31.4609 19.74 31.3005 19.5233 31.1705 19.194L30.8845 18.453C30.5465 18.739 30.2215 18.9903 29.9095 19.207C29.5975 19.4237 29.2725 19.61 28.9345 19.766C28.6052 19.9133 28.2499 20.0217 27.8685 20.091C27.4959 20.169 27.0799 20.208 26.6205 20.208C26.0052 20.208 25.4462 20.13 24.9435 19.974C24.4409 19.8093 24.0119 19.571 23.6565 19.259C23.3099 18.947 23.0412 18.5613 22.8505 18.102C22.6599 17.634 22.5645 17.0967 22.5645 16.49C22.5645 16.0133 22.6859 15.5237 22.9285 15.021C23.1712 14.5183 23.5915 14.0633 24.1895 13.656C24.7875 13.24 25.5935 12.8933 26.6075 12.616C27.6215 12.3387 28.8999 12.1827 30.4425 12.148V11.576C30.4425 10.7873 30.2779 10.2197 29.9485 9.873C29.6279 9.51767 29.1685 9.34 28.5705 9.34C28.0939 9.34 27.7039 9.392 27.4005 9.496C27.0972 9.6 26.8242 9.717 26.5815 9.847C26.3475 9.977 26.1179 10.094 25.8925 10.198C25.6672 10.302 25.3985 10.354 25.0865 10.354C24.8092 10.354 24.5709 10.289 24.3715 10.159C24.1809 10.0203 24.0292 9.85133 23.9165 9.652L23.1885 8.391C24.0032 7.67167 24.9045 7.13867 25.8925 6.792C26.8892 6.43667 27.9552 6.259 29.0905 6.259C29.9052 6.259 30.6375 6.39333 31.2875 6.662C31.9462 6.922 32.5009 7.29033 32.9515 7.767C33.4109 8.235 33.7619 8.794 34.0045 9.444C34.2472 10.094 34.3685 10.8047 34.3685 11.576V20H32.5225ZM27.8945 17.543C28.4145 17.543 28.8695 17.452 29.2595 17.27C29.6495 17.088 30.0439 16.7933 30.4425 16.386V14.514C29.6365 14.5487 28.9735 14.618 28.4535 14.722C27.9335 14.826 27.5219 14.956 27.2185 15.112C26.9152 15.268 26.7029 15.4457 26.5815 15.645C26.4689 15.8443 26.4125 16.061 26.4125 16.295C26.4125 16.7543 26.5382 17.0793 26.7895 17.27C27.0409 17.452 27.4092 17.543 27.8945 17.543ZM37.4902 20V0.538999H41.5202V7.702C42.0055 7.286 42.5298 6.95233 43.0932 6.701C43.6652 6.441 44.3455 6.311 45.1342 6.311C45.8708 6.311 46.5208 6.441 47.0842 6.701C47.6562 6.95233 48.1372 7.30767 48.5272 7.767C48.9172 8.21767 49.2118 8.75933 49.4112 9.392C49.6105 10.016 49.7102 10.6963 49.7102 11.433V20H45.6802V11.433C45.6802 10.7743 45.5285 10.263 45.2252 9.899C44.9218 9.52633 44.4755 9.34 43.8862 9.34C43.4442 9.34 43.0282 9.43533 42.6382 9.626C42.2482 9.81667 41.8755 10.0723 41.5202 10.393V20H37.4902ZM52.8322 20V6.519H55.3282C55.5795 6.519 55.7875 6.57533 55.9522 6.688C56.1255 6.80067 56.2469 6.96967 56.3162 7.195L56.5502 7.975C56.8102 7.73233 57.0789 7.507 57.3562 7.299C57.6335 7.091 57.9282 6.91767 58.2402 6.779C58.5609 6.63167 58.9032 6.519 59.2672 6.441C59.6399 6.35433 60.0429 6.311 60.4762 6.311C61.2129 6.311 61.8629 6.441 62.4262 6.701C62.9982 6.95233 63.4792 7.30767 63.8692 7.767C64.2592 8.21767 64.5539 8.75933 64.7532 9.392C64.9525 10.016 65.0522 10.6963 65.0522 11.433V20H61.0222V11.433C61.0222 10.7743 60.8705 10.263 60.5672 9.899C60.2639 9.52633 59.8175 9.34 59.2282 9.34C58.7862 9.34 58.3702 9.43533 57.9802 9.626C57.5902 9.81667 57.2175 10.0723 56.8622 10.393V20H52.8322ZM77.4822 20C77.1009 20 76.8106 19.948 76.6112 19.844C76.4206 19.74 76.2602 19.5233 76.1302 19.194L75.8442 18.453C75.5062 18.739 75.1812 18.9903 74.8692 19.207C74.5572 19.4237 74.2322 19.61 73.8942 19.766C73.5649 19.9133 73.2096 20.0217 72.8282 20.091C72.4556 20.169 72.0396 20.208 71.5802 20.208C70.9649 20.208 70.4059 20.13 69.9032 19.974C69.4006 19.8093 68.9716 19.571 68.6162 19.259C68.2696 18.947 68.0009 18.5613 67.8102 18.102C67.6196 17.634 67.5242 17.0967 67.5242 16.49C67.5242 16.0133 67.6456 15.5237 67.8882 15.021C68.1309 14.5183 68.5512 14.0633 69.1492 13.656C69.7472 13.24 70.5532 12.8933 71.5672 12.616C72.5812 12.3387 73.8596 12.1827 75.4022 12.148V11.576C75.4022 10.7873 75.2376 10.2197 74.9082 9.873C74.5876 9.51767 74.1282 9.34 73.5302 9.34C73.0536 9.34 72.6636 9.392 72.3602 9.496C72.0569 9.6 71.7839 9.717 71.5412 9.847C71.3072 9.977 71.0776 10.094 70.8522 10.198C70.6269 10.302 70.3582 10.354 70.0462 10.354C69.7689 10.354 69.5306 10.289 69.3312 10.159C69.1406 10.0203 68.9889 9.85133 68.8762 9.652L68.1482 8.391C68.9629 7.67167 69.8642 7.13867 70.8522 6.792C71.8489 6.43667 72.9149 6.259 74.0502 6.259C74.8649 6.259 75.5972 6.39333 76.2472 6.662C76.9059 6.922 77.4606 7.29033 77.9112 7.767C78.3706 8.235 78.7216 8.794 78.9642 9.444C79.2069 10.094 79.3282 10.8047 79.3282 11.576V20H77.4822ZM72.8542 17.543C73.3742 17.543 73.8292 17.452 74.2192 17.27C74.6092 17.088 75.0036 16.7933 75.4022 16.386V14.514C74.5962 14.5487 73.9332 14.618 73.4132 14.722C72.8932 14.826 72.4816 14.956 72.1782 15.112C71.8749 15.268 71.6626 15.4457 71.5412 15.645C71.4286 15.8443 71.3722 16.061 71.3722 16.295C71.3722 16.7543 71.4979 17.0793 71.7492 17.27C72.0006 17.452 72.3689 17.543 72.8542 17.543ZM87.7372 20V6.519H90.2332C90.4845 6.519 90.6925 6.57533 90.8572 6.688C91.0305 6.80067 91.1519 6.96967 91.2212 7.195L91.4422 7.923C91.6675 7.689 91.9015 7.47667 92.1442 7.286C92.3869 7.08667 92.6469 6.91767 92.9242 6.779C93.2102 6.63167 93.5135 6.519 93.8342 6.441C94.1635 6.35433 94.5232 6.311 94.9132 6.311C95.7279 6.311 96.3995 6.52333 96.9282 6.948C97.4655 7.364 97.8729 7.923 98.1502 8.625C98.3755 8.209 98.6485 7.85367 98.9692 7.559C99.2985 7.26433 99.6495 7.026 100.022 6.844C100.404 6.662 100.802 6.52767 101.218 6.441C101.643 6.35433 102.063 6.311 102.479 6.311C103.251 6.311 103.935 6.428 104.533 6.662C105.131 6.88733 105.63 7.221 106.028 7.663C106.436 8.09633 106.743 8.63367 106.951 9.275C107.159 9.90767 107.263 10.627 107.263 11.433V20H103.233V11.433C103.233 10.0377 102.635 9.34 101.439 9.34C100.893 9.34 100.438 9.522 100.074 9.886C99.7189 10.2413 99.5412 10.757 99.5412 11.433V20H95.5112V11.433C95.5112 10.6617 95.3595 10.12 95.0562 9.808C94.7529 9.496 94.3065 9.34 93.7172 9.34C93.3532 9.34 93.0065 9.42233 92.6772 9.587C92.3565 9.75167 92.0532 9.97267 91.7672 10.25V20H87.7372ZM119.7 20C119.318 20 119.028 19.948 118.829 19.844C118.638 19.74 118.478 19.5233 118.348 19.194L118.062 18.453C117.724 18.739 117.399 18.9903 117.087 19.207C116.775 19.4237 116.45 19.61 116.112 19.766C115.782 19.9133 115.427 20.0217 115.046 20.091C114.673 20.169 114.257 20.208 113.798 20.208C113.182 20.208 112.623 20.13 112.121 19.974C111.618 19.8093 111.189 19.571 110.834 19.259C110.487 18.947 110.218 18.5613 110.028 18.102C109.837 17.634 109.742 17.0967 109.742 16.49C109.742 16.0133 109.863 15.5237 110.106 15.021C110.348 14.5183 110.769 14.0633 111.367 13.656C111.965 13.24 112.771 12.8933 113.785 12.616C114.799 12.3387 116.077 12.1827 117.62 12.148V11.576C117.62 10.7873 117.455 10.2197 117.126 9.873C116.805 9.51767 116.346 9.34 115.748 9.34C115.271 9.34 114.881 9.392 114.578 9.496C114.274 9.6 114.001 9.717 113.759 9.847C113.525 9.977 113.295 10.094 113.07 10.198C112.844 10.302 112.576 10.354 112.264 10.354C111.986 10.354 111.748 10.289 111.549 10.159C111.358 10.0203 111.206 9.85133 111.094 9.652L110.366 8.391C111.18 7.67167 112.082 7.13867 113.07 6.792C114.066 6.43667 115.132 6.259 116.268 6.259C117.082 6.259 117.815 6.39333 118.465 6.662C119.123 6.922 119.678 7.29033 120.129 7.767C120.588 8.235 120.939 8.794 121.182 9.444C121.424 10.094 121.546 10.8047 121.546 11.576V20H119.7ZM115.072 17.543C115.592 17.543 116.047 17.452 116.437 17.27C116.827 17.088 117.221 16.7933 117.62 16.386V14.514C116.814 14.5487 116.151 14.618 115.631 14.722C115.111 14.826 114.699 14.956 114.396 15.112C114.092 15.268 113.88 15.4457 113.759 15.645C113.646 15.8443 113.59 16.061 113.59 16.295C113.59 16.7543 113.715 17.0793 113.967 17.27C114.218 17.452 114.586 17.543 115.072 17.543ZM124.667 20V0.538999H128.697V7.702C129.183 7.286 129.707 6.95233 130.27 6.701C130.842 6.441 131.523 6.311 132.311 6.311C133.048 6.311 133.698 6.441 134.261 6.701C134.833 6.95233 135.314 7.30767 135.704 7.767C136.094 8.21767 136.389 8.75933 136.588 9.392C136.788 10.016 136.887 10.6963 136.887 11.433V20H132.857V11.433C132.857 10.7743 132.706 10.263 132.402 9.899C132.099 9.52633 131.653 9.34 131.063 9.34C130.621 9.34 130.205 9.43533 129.815 9.626C129.425 9.81667 129.053 10.0723 128.697 10.393V20H124.667ZM140.009 20V6.519H142.505C142.757 6.519 142.965 6.57533 143.129 6.688C143.303 6.80067 143.424 6.96967 143.493 7.195L143.727 7.975C143.987 7.73233 144.256 7.507 144.533 7.299C144.811 7.091 145.105 6.91767 145.417 6.779C145.738 6.63167 146.08 6.519 146.444 6.441C146.817 6.35433 147.22 6.311 147.653 6.311C148.39 6.311 149.04 6.441 149.603 6.701C150.175 6.95233 150.656 7.30767 151.046 7.767C151.436 8.21767 151.731 8.75933 151.93 9.392C152.13 10.016 152.229 10.6963 152.229 11.433V20H148.199V11.433C148.199 10.7743 148.048 10.263 147.744 9.899C147.441 9.52633 146.995 9.34 146.405 9.34C145.963 9.34 145.547 9.43533 145.157 9.626C144.767 9.81667 144.395 10.0723 144.039 10.393V20H140.009ZM164.659 20C164.278 20 163.988 19.948 163.788 19.844C163.598 19.74 163.437 19.5233 163.307 19.194L163.021 18.453C162.683 18.739 162.358 18.9903 162.046 19.207C161.734 19.4237 161.409 19.61 161.071 19.766C160.742 19.9133 160.387 20.0217 160.005 20.091C159.633 20.169 159.217 20.208 158.757 20.208C158.142 20.208 157.583 20.13 157.08 19.974C156.578 19.8093 156.149 19.571 155.793 19.259C155.447 18.947 155.178 18.5613 154.987 18.102C154.797 17.634 154.701 17.0967 154.701 16.49C154.701 16.0133 154.823 15.5237 155.065 15.021C155.308 14.5183 155.728 14.0633 156.326 13.656C156.924 13.24 157.73 12.8933 158.744 12.616C159.758 12.3387 161.037 12.1827 162.579 12.148V11.576C162.579 10.7873 162.415 10.2197 162.085 9.873C161.765 9.51767 161.305 9.34 160.707 9.34C160.231 9.34 159.841 9.392 159.537 9.496C159.234 9.6 158.961 9.717 158.718 9.847C158.484 9.977 158.255 10.094 158.029 10.198C157.804 10.302 157.535 10.354 157.223 10.354C156.946 10.354 156.708 10.289 156.508 10.159C156.318 10.0203 156.166 9.85133 156.053 9.652L155.325 8.391C156.14 7.67167 157.041 7.13867 158.029 6.792C159.026 6.43667 160.092 6.259 161.227 6.259C162.042 6.259 162.774 6.39333 163.424 6.662C164.083 6.922 164.638 7.29033 165.088 7.767C165.548 8.235 165.899 8.794 166.141 9.444C166.384 10.094 166.505 10.8047 166.505 11.576V20H164.659ZM160.031 17.543C160.551 17.543 161.006 17.452 161.396 17.27C161.786 17.088 162.181 16.7933 162.579 16.386V14.514C161.773 14.5487 161.11 14.618 160.59 14.722C160.07 14.826 159.659 14.956 159.355 15.112C159.052 15.268 158.84 15.4457 158.718 15.645C158.606 15.8443 158.549 16.061 158.549 16.295C158.549 16.7543 158.675 17.0793 158.926 17.27C159.178 17.452 159.546 17.543 160.031 17.543ZM179.724 20H175.304V1.059H179.724V20ZM183.503 20V6.519H185.999C186.25 6.519 186.458 6.57533 186.623 6.688C186.796 6.80067 186.917 6.96967 186.987 7.195L187.221 7.975C187.481 7.73233 187.749 7.507 188.027 7.299C188.304 7.091 188.599 6.91767 188.911 6.779C189.231 6.63167 189.574 6.519 189.938 6.441C190.31 6.35433 190.713 6.311 191.147 6.311C191.883 6.311 192.533 6.441 193.097 6.701C193.669 6.95233 194.15 7.30767 194.54 7.767C194.93 8.21767 195.224 8.75933 195.424 9.392C195.623 10.016 195.723 10.6963 195.723 11.433V20H191.693V11.433C191.693 10.7743 191.541 10.263 191.238 9.899C190.934 9.52633 190.488 9.34 189.899 9.34C189.457 9.34 189.041 9.43533 188.651 9.626C188.261 9.81667 187.888 10.0723 187.533 10.393V20H183.503ZM208.569 9.717C208.447 9.86433 208.33 9.98133 208.218 10.068C208.105 10.1547 207.945 10.198 207.737 10.198C207.537 10.198 207.355 10.1503 207.191 10.055C207.035 9.95967 206.857 9.85567 206.658 9.743C206.458 9.62167 206.224 9.51333 205.956 9.418C205.687 9.32267 205.353 9.275 204.955 9.275C204.461 9.275 204.032 9.366 203.668 9.548C203.312 9.73 203.018 9.99 202.784 10.328C202.55 10.666 202.376 11.082 202.264 11.576C202.151 12.0613 202.095 12.6117 202.095 13.227C202.095 14.5183 202.342 15.5107 202.836 16.204C203.338 16.8973 204.027 17.244 204.903 17.244C205.371 17.244 205.739 17.1877 206.008 17.075C206.285 16.9537 206.519 16.8237 206.71 16.685C206.9 16.5377 207.074 16.4033 207.23 16.282C207.394 16.1607 207.598 16.1 207.841 16.1C208.161 16.1 208.404 16.217 208.569 16.451L209.739 17.894C209.323 18.3707 208.885 18.7607 208.426 19.064C207.966 19.3587 207.494 19.5927 207.009 19.766C206.532 19.9307 206.051 20.0433 205.566 20.104C205.08 20.1733 204.608 20.208 204.149 20.208C203.325 20.208 202.537 20.052 201.783 19.74C201.037 19.428 200.379 18.9773 199.807 18.388C199.243 17.79 198.793 17.0577 198.455 16.191C198.125 15.3243 197.961 14.3363 197.961 13.227C197.961 12.2563 198.104 11.3507 198.39 10.51C198.684 9.66067 199.113 8.92833 199.677 8.313C200.249 7.689 200.951 7.19933 201.783 6.844C202.623 6.48867 203.594 6.311 204.695 6.311C205.752 6.311 206.679 6.48 207.477 6.818C208.274 7.156 208.993 7.65 209.635 8.3L208.569 9.717ZM210.969 17.959C210.969 17.647 211.025 17.3567 211.138 17.088C211.259 16.8193 211.42 16.5853 211.619 16.386C211.827 16.1867 212.07 16.0307 212.347 15.918C212.624 15.7967 212.928 15.736 213.257 15.736C213.578 15.736 213.877 15.7967 214.154 15.918C214.431 16.0307 214.674 16.1867 214.882 16.386C215.09 16.5853 215.25 16.8193 215.363 17.088C215.484 17.3567 215.545 17.647 215.545 17.959C215.545 18.271 215.484 18.5657 215.363 18.843C215.25 19.1117 215.09 19.3457 214.882 19.545C214.674 19.7443 214.431 19.9003 214.154 20.013C213.877 20.1257 213.578 20.182 213.257 20.182C212.928 20.182 212.624 20.1257 212.347 20.013C212.07 19.9003 211.827 19.7443 211.619 19.545C211.42 19.3457 211.259 19.1117 211.138 18.843C211.025 18.5657 210.969 18.271 210.969 17.959Z" fill="#121111"/>
</svg>
